X:1
T:Title
%%score { ( 1 3 ) | ( 2 4 ) }
L:1/8
Q:1/4=100
M:4/4
K:Bb
V:1 treble nm="Grand Piano"
V:3 treble 
V:2 bass 
V:4 bass 
V:1
 B3 A B2 F2 | EDCB, F>G F2 | [Fd]3 [Fc] [FB]2 [Fd]2 | [=Ed]2 cd c2 z2 | %4
w: Adam~Geibel * * *||||
 F2 z [CFA] [B,FB]2 [B,DB]2 | c2 de e2 [Fd]2 | dcBA G[Ge]d[Cc] | [DFB]2 [CEA]2 [B,DB]2 z2 | z8 | %9
w: |||||
 A>G A>B c2 A2 | z4 e4 |[M:9/8] c2 B B [Af]2- [Af] z z |[M:4/4] z4 z2 .e2 | z2 .d2 z4 | %14
w: |||||
 [GB]2 [GB]2 [Bf]3 [DB] | [FAd]2 [EAc]2 [DFB]2 z2 |] %16
w: ||
V:2
 B,3 A, B,2 F,2 | E,D,C,B,, F,>G, F,2 | [B,,B,]3 [C,A,] [D,B,]2 [B,,B,]2 | %3
 [C,B,]2 [C,B,]2 [F,A,F]2 z2 | z2 EE, D,2 B,,2 | [F,A,F]2 [F,F]-[F,CF] [B,CF]2[K:bass] [B,,B,]2 | %6
 [B,,B,][C,A,] [D,B,]2 [E,B,E][C,C][D,=B,]E, | F,2 F,2 B,,2 z2 | F>=E F>G A2 F2 | F>=E F>G A2 F2 | %10
 F->[_A,F] G->[B,G] [CF]3 [B,F] |[M:9/8] [A,EF]2 F z[K:bass] [F,C]2- [F,C] z z | %12
[M:4/4][K:treble] [F,A,F]2 [A,CF]2 [B,F]2[K:bass] [B,,B,]2 | %13
 [D,A,]2 [^F,D]2[K:treble] [G,DG]2 [DG]2 | [E,E]2 [=E,_D]2 [F,=D]3 F, | F,2 F,2 B,,2 z2 |] %16
V:3
 x8 | x8 | x8 | z2 =E2 z4 | [B,G]4 z4 | x8 | F2 F2 z2 G2 | x8 | x8 | x8 | c>=B c>d z G,A,d | %11
[M:9/8] x9 |[M:4/4] e2 fe d2 F-[Fd] | [^Fc]2 A-[Ac] c2 B2 | x8 | x8 |] %16
V:4
 x8 | x8 | x8 | x8 | E,4 z4 | z2 .B,2 z4[K:bass] | x8 | x8 | x8 | x8 | A,2 =A,2 .F,2 z2 | %11
[M:9/8] z2 [B,D]- [B,D][K:bass] z z z3 |[M:4/4][K:treble] x6[K:bass] x2 | x4[K:treble] x4 | x8 | %15
 x8 |] %16

